!!!COM: Palestrina, Giovanni Perluigi da
!!!OPR: Missa Papae Marcelli
!!!OMD: Credo
!!!OTL: Crucifixus
**kern	**kern	**kern	**kern
*Ibass	*Itenor	*Icalto	*Icant
!Bassus	!Tenor	!Altus	!Cantus
*clefF4	*clefGv2	*clefG2	*clefG2
*k[]	*k[]	*k[]	*k[]
*C:ion	*C:ion	*C:ion	*C:ion
*M4/2	*M4/2	*M4/2	*M4/2
=74	=74	=74	=74
0G	0g	0r	0r
=75	=75	=75	=75
1A	1f	0r	0r
1c	1e	.	.
=76	=76	=76	=76
2B	2d	2r	0r
1c	1e	1g	.
2B	2d	2g	.
=77	=77	=77	=77
2A	2c	2f	0r
2G	2B	2e	.
1F	2c	1a	.
.	2d	.	.
=78	=78	=78	=78
1E	1e	2g	2r
.	.	2e	2g
1r	1r	2f	2a
.	.	2g	2b
=79	=79	=79	=79
0r	2r	2a	2cc
.	2G	2b	2dd
.	2c	2cc	2ee
.	2d	[2b	[2dd
=80	=80	=80	=80
0r	2e	4b]	4dd]
.	.	4a	4cc
.	2f	1a	4cc
.	.	.	8b
.	.	.	8a
.	1e	.	1b
.	.	2g#	.
=81	=81	=81	=81
1r	1A	1a	1a
[1A	[1e	[1a	[1cc
=82	=82	=82	=82
1A]	1e]	1a]	1cc]
1F	1f	1a	1cc
=83	=83	=83	=83
1c	1.e	1.g	1cc
1G	.	.	1b-
.	2d	2f	.
=84	=84	=84	=84
1A	2c#	2e	1a
.	1d	2d	.
1A	.	1e	1a
.	2c#	.	.
=85	=85	=85	=85
1D	1d	1d	1a
2r	2r	2r	2r
2D	2f	2a	2dd
=86	=86	=86	=86
2D	2f	2a	2dd
2D	2f	2a	2dd
1A	1e	1a	1cc
=87	=87	=87	=87
1A	1c	1e	2a
.	.	.	1cc
1r	2.e	2.g	.
.	.	.	2b
.	4d	4f	.
=88	=88	=88	=88
0r	2c	2e	2a
.	2B	2d	1g
.	1A	1c	.
.	.	.	2f#
=89	=89	=89	=89
2r	2G	1d	1g
2G	2g	.	.
2A	2f	1r	1r
2B	2d	.	.
=90	=90	=90	=90
2c	2e	0r	0r
2.d	2.f	.	.
4c	4e	.	.
[2c	4e	.	.
.	8d	.	.
.	8c	.	.
=91	=91	=91	=91
2c]	1d	0r	0r
2B	.	.	.
1c	1c	.	.
=92	=92	=92	=92
2r	2r	2r	1.cc
1c	1e	1g	.
2c	2e	2g	2cc
=93	=93	=93	=93
1A	1e	1a	1cc
2G	2g	2b	2dd
2G	2g	2b	2ee
=94	=94	=94	=94
1F	1a	1cc	1ff
[1C	2g	1cc	1ee
.	2c	.	.
=95	=95	=95	=95
1C]	4c	2r	2r
.	4d	.	.
.	4e	2cc	2ee
.	4f	.	.
1r	2g	2b	2dd
.	2e	2g	2ee
=96	=96	=96	=96
0r	2.f	2.a	2.cc
.	4f	4a	4dd
.	2e	2g	2ee
.	[2d	[2a	[2ff
=97	=97	=97	=97
0r	4d]	4a]	4ff]
.	4e	4g	4ee
.	2c	2e	1ee
.	1d	1f	.
.	.	.	2dd
=98	=98	=98	=98
2r	2A	2e	1ee
2A	2e	2a	.
2.c	2.e	2.g	1r
4c	4e	4g	.
=99	=99	=99	=99
2c	2e	2g	0r
2B-	2d	2g	.
2A	2c	2f	.
2G	2B	2e	.
=100	=100	=100	=100
0F	1c	2f	2r
.	.	2f	2a
.	1r	2.a	2.cc
.	.	4a	4cc
=101	=101	=101	=101
2r	0r	2a	2cc
2G	.	2.g	2b
2A	.	.	1a
.	.	4f	.
2F	.	[2f	.
=102	=102	=102	=102
1c	0r	2f]	1g
.	.	2e	.
1F	.	1f	1f
=103	=103	=103	=103
0F	0f	0a	0cc
=104	=104	=104	=104
1C	1e	1g	1cc
1E	1e	1g	1b
=105	=105	=105	=105
1.F	1.c	1.f	1.a
2C	2c	2e	2g
=106	=106	=106	=106
1C	1c	1e	0g
2r	2r	2r	.
[2c	[2e	[2g	.
=107	=107	=107	=107
2c]	2e]	2g]	0r
2B	2d	2g	.
1c	1e	1g	.
=108	=108	=108	=108
2B	2d	2.g	0r
2G	2B	.	.
.	.	4f	.
2A	2c	2e	.
2B	[2d	2d	.
=109	=109	=109	=109
1c	4d]	1e	0r
.	4c	.	.
.	1c	.	.
1G	.	1d	.
.	2B	.	.
=110	=110	=110	=110
2r	2c	2e	2r
1C	1e	1g	1cc
2G	2d	2g	2b
=111	=111	=111	=111
1A	1c	2e	1cc
.	.	2f#	.
1G	2d	2g	2b
.	2B	2d	2dd
=112	=112	=112	=112
0r	2c	2e	2cc
.	2d	2f#	2a
.	2G	1g	1b
.	[2g	.	.
=113	=113	=113	=113
2r	2g]	1d	2a
2D	2f	.	2a
2E	2e	2r	2g
2F#	[2d	2A	[2a
=114	=114	=114	=114
1G	4d]	2.B	2a]
.	4c	.	.
.	2B	.	1g
.	.	4c	.
1D	1A	1d	.
.	.	.	2f#
=115	=115	=115	=115
0G	0G	0d	0g
*-	*-	*-	*-
!!!CDT: 1525/^1526/-1594/2/2
!!!OCY: Italia
!!!AGN: Mass (Free)
!!!AST: renaissance, vocal
!!!ASW: Chanson 1533 (Lupi or Cadéac)
!!!PWK: Masses, Book 2
!!!RNB: Cadence finals: G
!!!YOR: Le Opere Complete, v. 4, p. 167
!!!YOO: Rome, Italy: Fratelli Scalera
!!!END: 1992//
!!!EED: John Miller
!!!YEC: Copyright 2000, John Miller
!!!YEN: United States of America
!!!YEM: Rights to all derivative electronic formats reserved.
!!!YEM: Refer to licensing agreement for further details.
!!!YEM: This file must be accompanied by the licensing agreement.
!!!YEM: A copy of the licensing agreement may be found at http://www.music-cog.ohio-state.edu/HumdrumDatabases/Palestrina/license.txt
!!!EMD: converted to Humdrum by Bret Aarden
